X: 3033
T: The NORTH BRIDGE OF EDINBURGH
Q:"Strathspey."
R: Strathspey.
%R:strathspey
B: James Kerr "Merry Melodies" v.3 p.6 #33
Z: 2016 John Chambers <jc:trillian.mit.edu>
M: C
L: 1/16
K: Bm
uB2 |\
FB3 B3F BBB2 d4 | c3BA3c edcB Ac3 |\
FB3 B3F BBB2 d4 | d3Bc3^A B4 B,2 ::\
c2 |\
d4- d2f2 ddd2 f3d |
c3BA3c edcB A2c2 |\
[1 d4- d2f2 ddd2 d4 | d3Bc3^A B4 B,2 :|\
[2 df3 df3 cA3 ec3 | d3Bc3^A B4 B,2 |]

%%sep 1 1 500
%%sep 1 1 500

